packages/core/src/svgs/bcoin.svg

<svg width="24" height="24" viewBox="0 0 24 24" fill="none" xmlns="http://www.w3.org/2000/svg">
<g clip-path="url(#clip0_31_6854)">
<path d="M0 0H24V24H0V0Z" fill="#F0F3FA"/>
<path d="M5.57141 10.7145H5.99998V13.2859H5.57141V10.7145ZM18 10.7145H18.4286V13.2859H18V10.7145ZM5.99998 9.42878H6.42855V10.7145H5.99998V9.42878ZM5.99998 14.5716H6.42855V13.2859H5.99998V14.5716ZM18 14.5716H17.5714V13.2859H18V14.5716ZM18 9.42878H17.5714V10.7145H18V9.42878ZM6.42855 8.14307H6.85713V9.42878H6.42855V8.14307ZM17.5714 15.8574H17.1428V14.5716H17.5714V15.8574ZM6.42855 15.8574H6.85713V14.5716H6.42855V15.8574ZM17.5714 8.14307H17.1428V9.42878H17.5714V8.14307ZM17.1428 16.7145H16.7143V15.8574H17.1428V16.7145ZM6.85713 7.28592H7.2857V8.14307H6.85713V7.28592ZM6.85713 16.7145H7.2857V15.8574H6.85713V16.7145ZM16.7143 17.1431H16.2857V16.7145H16.7143V17.1431ZM17.1428 7.28592H16.7143V8.14307H17.1428V7.28592ZM7.2857 6.85735H7.71427V7.28592H7.2857V6.85735ZM16.2857 17.5716H15V17.1431H16.2857V17.5716ZM7.2857 17.1431H7.71427V16.7145H7.2857V17.1431ZM16.7143 6.85735H16.2857V7.28592H16.7143V6.85735ZM15 18.0002H14.1428V17.5716H15V18.0002ZM7.71427 6.42878H8.99998V6.85735H7.71427V6.42878ZM7.71427 17.5716H8.99998V17.1431H7.71427V17.5716ZM14.1428 18.4288H12.8571V18.0002H14.1428V18.4288ZM16.2857 6.42878H15V6.85735H16.2857V6.42878ZM8.99998 6.00021H9.85713V6.42878H8.99998V6.00021ZM13.2857 18.8574H12V18.4288H13.2857V18.8574ZM8.99998 18.0002H9.85713V17.5716H8.99998V18.0002ZM15 6.00021H14.1428V6.42878H15V6.00021ZM9.85713 5.57164H11.1428V6.00021H9.85713V5.57164ZM9.85713 18.4288H11.1428V18.0002H9.85713V18.4288ZM14.1428 5.57164H12.8571V6.00021H14.1428V5.57164ZM10.7143 5.14307H12V5.57164H10.7143V5.14307ZM10.7143 18.8574H12V18.4288H10.7143V18.8574ZM13.2857 5.14307H12V5.57164H13.2857V5.14307Z" fill="#641500"/>
<path d="M6 10.7141H6.42857V12.857H6V10.7141ZM6.42857 9.42843H6.85714V10.7141H6.42857V9.42843ZM17.5714 9.42843H17.1429V10.7141H17.5714V9.42843ZM6.85714 8.14272H7.28571V9.42843H6.85714V8.14272ZM17.1429 8.14272H16.7143V9.42843H17.1429V8.14272ZM7.28571 7.28557H7.71429V8.14272H7.28571V7.28557ZM16.7143 7.28557H16.2857V8.57129H16.7143V7.28557ZM7.71429 6.857H9V7.28557H7.71429V6.857ZM16.2857 6.857H15V7.28557H16.2857V6.857ZM9 6.42843H9.85714V6.857H9V6.42843ZM15 6.42843H14.1429V6.857H15V6.42843ZM9.85714 5.99986H11.1429V6.42843H9.85714V5.99986ZM14.1429 5.99986H12.8571V6.42843H14.1429V5.99986ZM11.1429 5.57129H12V5.99986H11.1429V5.57129ZM12.8571 5.57129H12V5.99986H12.8571V5.57129ZM18 10.7141H17.5714V12.857H18V10.7141Z" fill="#B02B08"/>
<path d="M6 12.8569H6.42857V13.2855H6V12.8569ZM18 12.8569H17.5714V13.2855H18V12.8569ZM6.42857 13.7141H6.85714V14.5712H6.42857V13.7141ZM17.5714 13.7141H17.1429V14.5712H17.5714V13.7141ZM6.85714 14.5712H7.28571V15.8569H6.85714V14.5712ZM17.1429 14.5712H16.7143V15.8569H17.1429V14.5712Z" fill="#F97400"/>
<path d="M7.28577 15.4287H7.71434V16.7144H7.28577V15.4287ZM16.7143 15.4287H16.2858V16.7144H16.7143V15.4287ZM7.71434 15.8573H8.14291V17.143H7.71434V15.8573ZM16.2858 15.8573H15.8572V17.143H16.2858V15.8573ZM8.14291 16.2859H8.57148V17.143H8.14291V16.2859ZM15.8572 16.2859H15.4286V17.143H15.8572V16.2859ZM9.00005 16.7144H9.42862V17.5716H9.00005V16.7144ZM15.0001 16.7144H14.5715V17.5716H15.0001V16.7144Z" fill="#BD480A"/>
<path d="M9.42855 16.7142H9.85713V17.5714H9.42855V16.7142ZM14.5714 16.7142H14.1428V17.5714H14.5714V16.7142ZM9.85713 17.1428H11.1428V17.9999H9.85713V17.1428ZM14.1428 17.1428H12.8571V17.9999H14.1428V17.1428ZM11.1428 17.5714H12.8571V18.4285H11.1428V17.5714ZM8.57141 16.2856H8.99998V17.1428H8.57141V16.2856ZM15.4286 16.2856H15V17.1428H15.4286V16.2856Z" fill="#F97400"/>
<path d="M6.42859 12.8569H6.85716V13.7141H6.42859V12.8569ZM17.5714 12.8569H17.1429V13.7141H17.5714V12.8569Z" fill="#BD480A"/>
<path d="M6.42859 10.7144H7.7143V11.5715H6.42859V10.7144Z" fill="#FFF869"/>
<path d="M17.5714 10.7142H16.2857V11.5714H17.5714V10.7142ZM6.42859 11.5714H7.7143V12.8571H6.42859V11.5714ZM8.57145 10.2856H9.42859V13.2856H8.57145V10.2856ZM14.5714 10.2856H15.8572V13.2856H14.5714V10.2856ZM9.00002 13.2856H9.42859V14.1428H9.00002V13.2856Z" fill="#FEB032"/>
<path d="M9 10.7141H9.42857V9.857H9V10.7141ZM9.42857 13.7141H10.2857V14.5713H9.42857V13.7141ZM9.42857 9.857H9.85714V9.42843H9.42857V9.857ZM9.85714 14.5713H10.7143V14.9999H9.85714V14.5713ZM9.42857 9.42843H10.2857V8.99986H9.42857V9.42843ZM10.7143 14.5713H13.7143V15.4284H10.7143V14.5713ZM10.2857 9.42843H13.7143V8.57129H10.2857V9.42843ZM13.7143 14.5713H14.5714V14.9999H13.7143V14.5713ZM13.7143 9.42843H14.5714V8.57129H13.7143V9.42843ZM13.7143 14.1427H15V14.5713H13.7143V14.1427Z" fill="#FEB032"/>
<path d="M14.1428 9.85714H15V9H14.1428V9.85714ZM14.1428 13.2857H15.4285V14.1429H14.1428V13.2857Z" fill="#FEB032"/>
<path d="M14.5715 10.2859H15.4286V9.42878H14.5715V10.2859ZM11.1429 15.4288H12.8572V15.8574H11.1429V15.4288ZM11.1429 8.57164H13.2857V8.14307H11.1429V8.57164ZM6.85718 12.8574H7.71432V14.5716H6.85718V12.8574Z" fill="#FEB032"/>
<path d="M7.28577 13.7144H8.14291V15.4286H7.28577V13.7144Z" fill="#FEB032"/>
<path d="M7.71423 14.5713H8.57138V15.857H7.71423V14.5713Z" fill="#FEB032"/>
<path d="M8.14282 15H8.99997V16.2857H8.14282V15ZM8.99997 15.4286H9.85711V16.7143H8.99997V15.4286Z" fill="#FEB032"/>
<path d="M8.57141 14.9999H9.42855V16.2856H8.57141V14.9999ZM9.85713 15.857H11.1428V17.1427H9.85713V15.857ZM11.1428 16.2856H12.8571V17.5713H11.1428V16.2856ZM17.5714 11.5713H16.2857V12.857H17.5714V11.5713ZM17.1428 12.857H16.2857V14.5713H17.1428V12.857Z" fill="#FEB032"/>
<path d="M16.7143 13.7144H15.8572V15.4286H16.7143V13.7144Z" fill="#FEB032"/>
<path d="M16.2857 14.5713H15.4286V15.857H16.2857V14.5713Z" fill="#FEB032"/>
<path d="M15.8571 15H15V16.2857H15.8571V15ZM15 15.4286H14.1428V16.7143H15V15.4286Z" fill="#FEB032"/>
<path d="M15.4286 15H14.5715V16.2857H15.4286V15ZM14.1429 15.8571H12.8572V17.1429H14.1429V15.8571Z" fill="#FEB032"/>
<path d="M6.85718 9.42871H7.71432V10.7144H6.85718V9.42871Z" fill="#FFF869"/>
<path d="M17.1429 9.42871H16.2857V10.7144H17.1429V9.42871ZM16.2857 9.42871H15.8572V9.85728H16.2857V9.42871Z" fill="#FEB032"/>
<path d="M7.28577 9H8.14291V9.42857H7.28577V9Z" fill="#FFF869"/>
<path d="M16.7143 8.57129H15.4286V9.42843H16.7143V8.57129Z" fill="#FEB032"/>
<path d="M7.71423 8.57157H8.57138V9.00014H7.71423V8.57157ZM8.1428 7.71443H8.99995V8.57157H8.1428V7.71443ZM8.99995 7.28585H9.85709V8.143H8.99995V7.28585ZM9.85709 6.85728H11.1428V7.71443H9.85709V6.85728ZM11.1428 6.42871H12.8571V7.28585H11.1428V6.42871ZM12.8571 6.42871H14.1428V7.71443H12.8571V6.42871ZM14.1428 6.85728H14.9999V7.71443H14.1428V6.85728Z" fill="#FFF869"/>
<path d="M14.5714 7.28564H15.8571V8.14279H14.5714V7.28564Z" fill="#FFF869"/>
<path d="M15 7.28571H16.2857V8.57143H15V7.28571ZM12 6H12.8571V6.42857H12V6Z" fill="#FFF869"/>
<path d="M7.28577 8.14286H7.71434V9H7.28577V8.14286ZM7.71434 7.28571H8.14291V8.57143H7.71434V7.28571ZM8.14291 7.28571H9.00005V7.71429H8.14291V7.28571ZM9.00005 6.85714H9.8572V7.28571H9.00005V6.85714ZM9.8572 6.42857H11.1429V6.85714H9.8572V6.42857ZM11.1429 6H12.0001V6.42857H11.1429V6Z" fill="#FFFACE"/>
<path d="M7.71423 9.42871H8.1428V13.7144H7.71423V9.42871Z" fill="#C61600"/>
<path d="M8.14282 9.85721H8.57139V13.7144H8.14282V9.85721ZM8.57139 8.5715H8.99997V10.2858H8.57139V8.5715ZM8.99997 8.5715H9.42854V9.85721H8.99997V8.5715ZM9.42854 8.14293H9.85711V9.00007H9.42854V8.14293ZM9.85711 8.14293H10.2857V9.00007H9.85711V8.14293ZM10.2857 8.14293H11.1428V8.5715H10.2857V8.14293ZM11.1428 7.71436H12.8571V8.14293H11.1428V7.71436ZM13.2857 8.14293H14.5714V8.5715H13.2857V8.14293ZM14.5714 8.5715H15V9.00007H14.5714V8.5715ZM15 9.00007H15.4285V9.42864H15V9.00007ZM15.4285 9.85721H15.8571V10.2858H15.4285V9.85721ZM8.57139 13.2858H8.99997V14.1429H8.57139V13.2858ZM8.99997 14.1429H9.42854V14.5715H8.99997V14.1429ZM9.42854 14.5715H9.85711V15.0001H9.42854V14.5715ZM10.2857 15.0001H10.7143V15.4286H10.2857V15.0001ZM9.85711 15.0001H10.2857V15.4286H9.85711V15.0001Z" fill="#F97400"/>
<path d="M8.14282 8.99993H8.57139V9.85707H8.14282V8.99993ZM15.4285 8.99993H15.8571V9.85707H15.4285V8.99993ZM15.8571 9.85707H16.2857V10.7142H15.8571V9.85707ZM8.57139 8.57136H8.99997V8.99993H8.57139V8.57136ZM8.99997 8.14279H9.42854V8.57136H8.99997V8.14279ZM14.5714 8.14279H15V8.57136H14.5714V8.14279ZM15 8.57136H15.4285V8.99993H15V8.57136ZM9.85711 7.71422H11.1428V8.14279H9.85711V7.71422ZM12.8571 7.71422H14.5714V8.14279H12.8571V7.71422ZM11.1428 7.28564H12.8571V7.71422H11.1428V7.28564ZM8.57139 14.1428H8.99997V14.9999H8.57139V14.1428ZM8.14282 13.2856H8.57139V14.5714H8.14282V13.2856ZM8.99997 14.5714H9.42854V14.9999H8.99997V14.5714ZM9.42854 14.9999H9.85711V15.4285H9.42854V14.9999Z" fill="#C61600"/>
<path d="M9.85718 15.4286H11.1429V15.8572H9.85718V15.4286ZM12.8572 15.4286H14.1429V15.8572H12.8572V15.4286ZM13.7143 15.0001H14.5715V15.4286H13.7143V15.0001ZM14.5715 14.5715H15V15.0001H14.5715V14.5715ZM15 14.1429H15.4286V15.0001H15V14.1429ZM15.4286 13.2858H15.8572V14.5715H15.4286V13.2858ZM15.8572 10.7144H16.2857V13.7144H15.8572V10.7144ZM11.1429 15.8572H12.8572V16.2858H11.1429V15.8572Z" fill="#FFF869"/>
<path d="M10.2858 14.1431H13.7143V14.5716H10.2858V14.1431Z" fill="#620719"/>
<path d="M10.2857 13.7141H13.7143V14.1426H10.2857V13.7141ZM9.85718 9.85693H14.1429V10.2855H9.85718V9.85693Z" fill="#F97400"/>
<path d="M9.85718 10.2856H14.1429V10.7142H9.85718V10.2856Z" fill="#D93900"/>
<path d="M12.8572 10.7144H13.7143V11.5715H12.8572V10.7144Z" fill="#FFF869"/>
<path d="M12 10.7144H12.8571V11.5715H12V10.7144Z" fill="#F6D45A"/>
<path d="M9.85718 9.42871H14.1429V9.85728H9.85718V9.42871ZM9.85718 12.8573H10.2857V13.7144H9.85718V12.8573ZM13.7143 12.8573H14.1429V13.7144H13.7143V12.8573Z" fill="#F97400"/>
<path d="M13.7143 11.5713H14.1429V12.857H13.7143V11.5713ZM9.85718 11.5713H10.2857V12.857H9.85718V11.5713ZM13.7143 12.857V13.7141H10.2857V12.857H13.7143ZM10.7143 11.5713V11.9999H10.2857V11.5713H10.7143Z" fill="#C61600"/>
<path d="M13.2857 11.1431V12.0002H12.8571V11.1431H13.2857ZM11.5714 12.0002V12.4288H11.1428V12.0002H11.5714ZM12.8571 12.0002V12.4288H12.4285V12.0002H12.8571Z" fill="#00070A"/>
<path d="M13.7143 12.0001V12.8572H12.8572V12.0001H13.7143ZM11.1429 12.0001V12.8572H10.2858V12.0001H11.1429ZM11.5715 10.7144V11.5715H11.1429V10.7144H11.5715ZM12.8572 12.4286V12.8572H11.1429V12.4286H12.8572Z" fill="white"/>
<path d="M12.4286 12V12.8571H11.5714V12H12.4286Z" fill="#F5CB9C"/>
<path d="M12.8571 11.5713V11.9999H11.1428V11.5713H12.8571ZM13.7143 11.5713V11.9999H13.2857V11.5713H13.7143Z" fill="#C61600"/>
<path d="M9.85716 13.7144H10.2857V14.1429H9.85716V13.7144ZM13.7143 13.7144H14.1429V14.1429H13.7143V13.7144ZM14.1429 10.7144H14.5714V13.7144H14.1429V10.7144ZM9.42859 10.7144H9.85716V13.7144H9.42859V10.7144Z" fill="#620719"/>
<path d="M9.42859 9.85728H9.85716V10.7144H9.42859V9.85728ZM10.7143 9.42871V9.85728H9.85716V9.42871H10.7143ZM14.1429 9.42871V9.85728H13.7143V9.42871H14.1429ZM14.1429 9.85728H14.5714V10.7144H14.1429V9.85728ZM13.7143 10.7144H14.1429V11.5716H13.7143V10.7144ZM9.85716 10.7144H10.2857V11.5716H9.85716V10.7144Z" fill="#9E100A"/>
<path d="M10.2858 10.7144H10.7143V11.5715H10.2858V10.7144Z" fill="#EEB04B"/>
<path d="M11.5714 10.7144H11.9999V11.5715H11.5714V10.7144ZM10.7142 10.7144H11.1428V11.5715H10.7142V10.7144Z" fill="#FFF869"/>
<path d="M11.1428 11.1431V12.0002H10.7142V11.1431H11.1428Z" fill="#00070A"/>
</g>
<defs>
<clipPath id="clip0_31_6854">
<rect width="24" height="24" fill="white"/>
</clipPath>
</defs>
</svg>

<svg xmlns="http://www.w3.org/2000/svg" width="24" height="24" fill="none" viewBox="0 0 24 24"><g clip-path="url(#a)"><path fill="#F0F3FA" d="M0 0h24v24H0z"/><path fill="#641500" d="M5.571 10.715H6v2.57h-.429zm12.429 0h.429v2.57H18zM6 9.429h.429v1.285H6zm0 5.143h.429v-1.286H6zm12 0h-.429v-1.286H18zm0-5.143h-.429v1.285H18zM6.429 8.143h.428V9.43H6.43zm11.142 7.714h-.428v-1.285h.428zm-11.142 0h.428v-1.285H6.43zM17.57 8.143h-.428V9.43h.428zm-.428 8.572h-.429v-.858h.429zM6.857 7.285h.429v.858h-.429zm0 9.43h.429v-.858h-.429zm9.857.428h-.428v-.428h.428zm.429-9.857h-.429v.857h.429zm-9.857-.429h.428v.429h-.428zm9 10.715H15v-.429h1.286zm-9-.429h.428v-.428h-.428zm9.428-10.286h-.428v.429h.428zM15 18h-.857v-.428H15zM7.714 6.43H9v.428H7.714zm0 11.143H9v-.429H7.714zm6.429.857h-1.286V18h1.286zm2.143-12H15v.428h1.286zM9 6h.857v.429H9zm4.286 12.857H12v-.428h1.286zM9 18h.857v-.428H9zm6-12h-.857v.429H15zm-5.143-.428h1.286V6H9.857zm0 12.857h1.286V18H9.857zm4.286-12.857h-1.286V6h1.286zm-3.429-.429H12v.429h-1.286zm0 13.714H12v-.428h-1.286zm2.572-13.714H12v.429h1.286z"/><path fill="#B02B08" d="M6 10.714h.429v2.143H6zm.429-1.286h.428v1.286H6.43zm11.142 0h-.428v1.286h.428zM6.857 8.143h.429v1.285h-.429zm10.286 0h-.429v1.285h.429zm-9.857-.857h.428v.857h-.428zm9.428 0h-.428V8.57h.428zm-9-.429H9v.429H7.714zm8.572 0H15v.429h1.286zM9 6.428h.857v.429H9zm6 0h-.857v.429H15zM9.857 6h1.286v.428H9.857zm4.286 0h-1.286v.428h1.286zm-3-.429H12V6h-.857zm1.714 0H12V6h.857zM18 10.714h-.429v2.143H18z"/><path fill="#F97400" d="M6 12.857h.429v.429H6zm12 0h-.429v.429H18zm-11.571.857h.428v.857H6.43zm11.142 0h-.428v.857h.428zm-10.714.857h.429v1.286h-.429zm10.286 0h-.429v1.286h.429z"/><path fill="#BD480A" d="M7.286 15.429h.428v1.285h-.428zm9.428 0h-.428v1.285h.428zm-9 .428h.429v1.286h-.429zm8.572 0h-.429v1.286h.429zm-8.143.429h.428v.857h-.428zm7.714 0h-.428v.857h.428zM9 16.714h.429v.858H9zm6 0h-.428v.858H15z"/><path fill="#F97400" d="M9.429 16.714h.428v.857H9.43zm5.142 0h-.428v.857h.428zm-4.714.429h1.286V18H9.857zm4.286 0h-1.286V18h1.286zm-3 .428h1.714v.857h-1.714zM8.57 16.286H9v.857h-.429zm6.858 0H15v.857h.429z"/><path fill="#BD480A" d="M6.429 12.857h.428v.857H6.43zm11.142 0h-.428v.857h.428z"/><path fill="#FFF869" d="M6.429 10.714h1.285v.857H6.43z"/><path fill="#FEB032" d="M17.571 10.714h-1.285v.857h1.285zm-11.142.857h1.285v1.286H6.43zm2.142-1.285h.858v3H8.57zm6 0h1.286v3h-1.286zm-5.571 3h.429v.857H9z"/><path fill="#FEB032" d="M9 10.714h.429v-.857H9zm.429 3h.857v.857h-.857zm0-3.857h.428v-.429H9.43zm.428 4.714h.857V15h-.857zM9.43 9.428h.857V9h-.857zm1.285 5.143h3v.857h-3zm-.428-5.143h3.428v-.857h-3.428zm3.428 5.143h.857V15h-.857zm0-5.143h.857v-.857h-.857zm0 4.715H15v.428h-1.286z"/><path fill="#FEB032" d="M14.143 9.857H15V9h-.857zm0 3.429h1.285v.857h-1.285z"/><path fill="#FEB032" d="M14.572 10.286h.857v-.857h-.857zm-3.43 5.143h1.715v.428h-1.714zm0-6.857h2.144v-.429h-2.143zm-4.285 4.285h.857v1.715h-.857z"/><path fill="#FEB032" d="M7.286 13.714h.857v1.715h-.857z"/><path fill="#FEB032" d="M7.714 14.571h.857v1.286h-.857z"/><path fill="#FEB032" d="M8.143 15H9v1.286h-.857zm.857.429h.857v1.285H9z"/><path fill="#FEB032" d="M8.571 15h.858v1.286H8.57zm1.286.857h1.286v1.286H9.857zm1.286.429h1.714v1.285h-1.714zm6.428-4.715h-1.285v1.286h1.285zm-.428 1.286h-.857v1.714h.857z"/><path fill="#FEB032" d="M16.714 13.714h-.857v1.715h.857z"/><path fill="#FEB032" d="M16.286 14.571h-.857v1.286h.857z"/><path fill="#FEB032" d="M15.857 15H15v1.286h.857zm-.857.429h-.857v1.285H15z"/><path fill="#FEB032" d="M15.429 15h-.857v1.286h.857zm-1.286.857h-1.286v1.286h1.286z"/><path fill="#FFF869" d="M6.857 9.429h.857v1.285h-.857z"/><path fill="#FEB032" d="M17.143 9.429h-.857v1.285h.857zm-.857 0h-.429v.428h.429z"/><path fill="#FFF869" d="M7.286 9h.857v.429h-.857z"/><path fill="#FEB032" d="M16.714 8.571H15.43v.857h1.285z"/><path fill="#FFF869" d="M7.714 8.572h.857V9h-.857zm.429-.858H9v.858h-.857zM9 7.286h.857v.857H9zm.857-.429h1.286v.857H9.857zm1.286-.428h1.714v.857h-1.714zm1.714 0h1.286v1.285h-1.286zm1.286.428H15v.857h-.857z"/><path fill="#FFF869" d="M14.571 7.286h1.286v.857h-1.286z"/><path fill="#FFF869" d="M15 7.286h1.286V8.57H15zM12 6h.857v.429H12z"/><path fill="#FFFACE" d="M7.286 8.143h.428V9h-.428zm.428-.857h.429V8.57h-.429zm.429 0H9v.428h-.857zM9 6.857h.857v.429H9zm.857-.428h1.286v.428H9.857zM11.143 6H12v.429h-.857z"/><path fill="#C61600" d="M7.714 9.429h.429v4.285h-.429z"/><path fill="#F97400" d="M8.143 9.857h.428v3.857h-.428zm.428-1.285H9v1.714h-.429zm.429 0h.429v1.285H9zm.429-.43h.428V9H9.43zm.428 0h.429V9h-.429zm.429 0h.857v.43h-.857zm.857-.428h1.714v.429h-1.714zm2.143.429h1.285v.428h-1.285zm1.285.428H15v.43h-.429zm.429.43h.428v.428H15zm.428.856h.43v.429h-.43zm-6.857 3.429H9v.857h-.429zm.429.857h.429v.428H9zm.429.428h.428v.43H9.43zm.857.43h.428v.428h-.428zm-.429 0h.429v.428h-.429z"/><path fill="#C61600" d="M8.143 9h.428v.857h-.428zm7.285 0h.43v.857h-.43zm.43.857h.428v.857h-.429zM8.57 8.571H9V9h-.429zM9 8.143h.429v.428H9zm5.571 0H15v.428h-.429zM15 8.57h.428V9H15zm-5.143-.857h1.286v.429H9.857zm3 0h1.714v.429h-1.714zm-1.714-.428h1.714v.428h-1.714zM8.57 14.143H9V15h-.429zm-.428-.857h.428v1.285h-.428zM9 14.57h.429V15H9zm.429.429h.428v.428H9.43z"/><path fill="#FFF869" d="M9.857 15.429h1.286v.428H9.857zm3 0h1.286v.428h-1.286zm.857-.429h.857v.429h-.857zm.857-.428H15V15h-.428zm.429-.43h.429V15H15zm.429-.856h.428v1.286h-.428zm.428-2.572h.429v3h-.429zm-4.714 5.143h1.714v.429h-1.714z"/><path fill="#620719" d="M10.286 14.143h3.428v.429h-3.428z"/><path fill="#F97400" d="M10.286 13.714h3.428v.429h-3.428zm-.429-3.857h4.286v.429H9.857z"/><path fill="#D93900" d="M9.857 10.286h4.286v.428H9.857z"/><path fill="#FFF869" d="M12.857 10.714h.857v.857h-.857z"/><path fill="#F6D45A" d="M12 10.714h.857v.857H12z"/><path fill="#F97400" d="M9.857 9.429h4.286v.428H9.857zm0 3.428h.429v.857h-.429zm3.857 0h.429v.857h-.429z"/><path fill="#C61600" d="M13.714 11.571h.429v1.286h-.429zm-3.857 0h.429v1.286h-.429zm3.857 1.286v.857h-3.428v-.857zm-3-1.286V12h-.428v-.429z"/><path fill="#00070A" d="M13.286 11.143V12h-.429v-.857zM11.57 12v.429h-.428V12zm1.286 0v.429h-.428V12z"/><path fill="#fff" d="M13.714 12v.857h-.857V12zm-2.571 0v.857h-.857V12zm.428-1.286v.857h-.428v-.857zm1.286 1.715v.428h-1.714v-.428z"/><path fill="#F5CB9C" d="M12.429 12v.857h-.858V12z"/><path fill="#C61600" d="M12.857 11.571V12h-1.714v-.429zm.857 0V12h-.428v-.429z"/><path fill="#620719" d="M9.857 13.714h.429v.429h-.429zm3.857 0h.429v.429h-.429zm.429-3h.428v3h-.428zm-4.714 0h.428v3H9.43z"/><path fill="#9E100A" d="M9.429 9.857h.428v.857H9.43zm1.285-.428v.428h-.857V9.43zm3.429 0v.428h-.429V9.43zm0 .428h.428v.857h-.428zm-.429.857h.429v.858h-.429zm-3.857 0h.429v.858h-.429z"/><path fill="#EEB04B" d="M10.286 10.714h.428v.857h-.428z"/><path fill="#FFF869" d="M11.571 10.714H12v.857h-.429zm-.857 0h.429v.857h-.429z"/><path fill="#00070A" d="M11.143 11.143V12h-.429v-.857z"/></g><defs><clipPath id="a"><path fill="#fff" d="M0 0h24v24H0z"/></clipPath></defs></svg>
